X:144
T:Church St Polka
C:Traditional
K:G
R:Polka
M:2/4
S:Conal O'Grada
BG D>G | Ec cA/B/ | cE F>E | Dd d/e/d/c/ |
BG D>G | Ec cA/B/ | c/B/A/G/ F/D/E/F/| GB G2 :|
|: g2 f2 | c3 d | ef/e/ d2 | B3 c |
d>e dB | A3 B/A/ |[1 GA Bc | de fd :|[2 Gg f/g/a/g/ | gf g2 |]

